digital/Imbassy-X-Files/65ef0811cc67439994568a45/65ef0811cc6743999456945a_Webflow-badge-black.svg

<svg fill="none" height="44" viewBox="0 0 186 44" width="186" xmlns="http://www.w3.org/2000/svg"><rect fill="#090a0b" height="43.68" rx="5.04" width="185.87"/><g fill="#fff"><path clip-rule="evenodd" d="m40.3725 13.4395-8.5938 16.8h-8.072l3.5965-6.9627h-.1614c-2.9671 3.8517-7.3941 6.3873-13.7018 6.9627v-6.8663s4.0352-.2384 6.4074-2.7324h-6.4074v-7.2012h7.2012v5.9229l.1617-.0007 2.9426-5.9222h5.4462v5.8853l.1617-.0002 3.053-5.8852z" fill-rule="evenodd"/><path d="m45.4125 16.5798h6.704v1.7227h-4.6727v2.6988h4.3999v1.6796h-4.3999v2.785h4.7229v1.7226h-6.7542zm10.1923 10.6087h-1.9595v-8.0103h1.9165v1.6437l-.3158.1292c.0909-.3828.2656-.7202.5239-1.0121.2585-.2966.5767-.524.9547-.6819.378-.1627.7799-.2416 1.2058-.2368.5647 0 1.0601.122 1.4859.366.4259.2393.7535.5862.9833 1.0408.2345.4546.3517.9881.3517 1.6006v5.1608h-1.9666v-4.7588c0-.3541-.0599-.658-.1796-.9116-.1149-.2584-.2848-.4522-.5095-.5814-.2202-.134-.4834-.2009-.7895-.2009-.3207 0-.6103.0789-.8686.2368-.2537.1532-.457.3733-.6101.6604-.1484.2823-.2226.6053-.2226.969zm7.5582-9.9627h1.9523v9.9627h-1.9523zm-1.457 1.9524h4.8665v1.6006h-4.8665zm9.5392 8.1898c-.7944 0-1.4977-.1723-2.1103-.5168-.6077-.3446-1.0815-.8326-1.4212-1.4643-.3398-.6316-.5095-1.3613-.5095-2.1892 0-.7991.1722-1.5145.5166-2.1461.3446-.6364.8207-1.1317 1.4284-1.4858.6078-.3541 1.2945-.5312 2.0601-.5312.8133 0 1.5311.1795 2.1534.5384.6268.3588 1.1029.89 1.4282 1.5934.3255.6987.4523 1.5337.3805 2.5051h-7.1419v-1.2849l5.649-.0143-.5168.2153c-.0097-.3924-.0958-.7417-.2585-1.0479-.158-.3063-.3803-.5432-.6676-.7106-.2871-.1723-.6172-.2584-.9904-.2584-.3925 0-.7442.0933-1.0552.2799-.3062.1866-.5479.4474-.7249.7824-.1722.3349-.2583.7082-.2583 1.1197v.7967c-.0049.4498.0812.847.2583 1.1915.177.3398.421.603.732.7896.3159.1866.6747.2799 1.0767.2799.2919 0 .5598-.0502.8041-.1507.2486-.1053.4569-.2465.6243-.4235.1722-.1819.2944-.3924.366-.6317h2.0171c-.1052.5504-.3327 1.0336-.6819 1.45-.3446.4163-.7896.7393-1.3352.969-.5407.2296-1.1482.3445-1.823.3445zm5.2899-8.1898h1.8806v1.6365l-.2728.0359c.0863-.3732.2394-.6962.4595-.969.2249-.2775.4928-.4881.8038-.6316.311-.1484.6485-.2225 1.012-.2225.0624 0 .122.0047.1796.0143.0621.0048.1195.012.1722.0215v1.8375c-.0479-.0191-.1197-.0335-.2153-.043-.0957-.0144-.189-.0216-.2799-.0216-.3637 0-.6819.0694-.9547.2082-.2679.1388-.4786.3445-.6316.6173-.1483.268-.2226.5933-.2226.9762v4.5506h-1.9308zm8.6348.1077c.4019-.1675.8159-.2513 1.2417-.2513.6939 0 1.3136.1747 1.8592.524.5455.3445.9689.8326 1.2705 1.4643.3061.6268.4592 1.3518.4592 2.1748 0 .8279-.1554 1.5576-.4664 2.1892-.3112.6269-.7417 1.1102-1.2921 1.4499-.5454.3398-1.1676.5073-1.8663.5025-.4353 0-.8517-.0814-1.2489-.2441-.3971-.1675-.7345-.3995-1.0119-.6962-.2728-.2967-.4499-.6293-.5311-.9977l.3444.0071v4.8306h-1.9667v-11.0608h1.9452l-.0073 1.7801-.3444.0215c.1004-.3733.2942-.7082.5813-1.0049.2919-.2967.6365-.5264 1.0336-.689zm1.852 1.737c-.3064-.2106-.6605-.3159-1.0624-.3159-.3923 0-.7465.1077-1.0624.323-.311.2106-.5573.5049-.7392.8829-.1818.378-.2751.8063-.2799 1.2848 0 .4881.0884.9236.2656 1.3064.1771.378.4234.6699.7392.8756.3159.201.6748.3015 1.0767.3015.4068 0 .7631-.1029 1.0695-.3086.3062-.2058.5408-.4977.7033-.8757.1628-.378.2443-.8111.2443-1.2992s-.0838-.9187-.2514-1.292c-.1626-.378-.3971-.6723-.7033-.8828zm4.3999-1.8447h1.8806v1.6365l-.2728.0359c.0861-.3732.2392-.6962.4595-.969.2249-.2775.4928-.4881.8038-.6316.311-.1484.6483-.2225 1.012-.2225.0622 0 .122.0047.1794.0143.0623.0048.1197.012.1724.0215v1.8375c-.0479-.0191-.1197-.0335-.2155-.043-.0955-.0144-.189-.0216-.2799-.0216-.3635 0-.6819.0694-.9545.2082-.2681.1388-.4786.3445-.6316.6173-.1485.268-.2226.5933-.2226.9762v4.5506h-1.9308zm5.4623 0h1.9595v8.0103h-1.9595zm-.0288-3.0649h2.0744v2.0098h-2.0744zm8.0387 5.4407c-.033-.2058-.107-.39-.222-.5527-.115-.1674-.268-.2967-.46-.3876-.186-.0957-.397-.1435-.631-.1435-.22.0048-.414.0478-.581.1292-.168.0765-.3.1842-.395.323-.096.1387-.144.2895-.144.4522 0 .2201.074.3995.223.5383.153.134.397.2369.732.3087l1.292.287c.732.158 1.277.4283 1.636.8111.359.3829.539.8757.539 1.4787-.005.4976-.141.9402-.409 1.3278-.264.3828-.637.6843-1.12.9044-.479.2153-1.029.323-1.651.323-.651 0-1.225-.1053-1.723-.3158-.493-.2105-.885-.5072-1.177-.89-.287-.3876-.457-.8446-.51-1.371h1.946c.057.3398.215.6125.473.8183.259.2009.589.2991.991.2943.249 0 .469-.0359.66-.1077.192-.0766.338-.1794.438-.3086.101-.134.151-.2848.151-.4522-.01-.2202-.089-.3996-.237-.5384-.148-.1387-.381-.244-.696-.3158l-1.263-.2871c-.766-.1723-1.331-.445-1.695-.8183-.363-.3732-.543-.8637-.538-1.4714-.005-.4929.125-.9355.388-1.3279s.629-.6962 1.098-.9115c.474-.2202 1.014-.3326 1.622-.3374.613 0 1.148.1053 1.608.3158.459.2058.823.5001 1.091.8829s.428.8302.481 1.3422zm7.106 5.814c-.794 0-1.497-.1723-2.11-.5168-.608-.3446-1.081-.8326-1.421-1.4643-.34-.6316-.51-1.3613-.51-2.1892 0-.7991.173-1.5145.517-2.1461.345-.6364.821-1.1317 1.428-1.4858.608-.3541 1.295-.5312 2.06-.5312.814 0 1.532.1795 2.154.5384.627.3588 1.103.89 1.428 1.5934.325.6987.452 1.5337.38 2.5051h-7.141v-1.2849l5.649-.0143-.517.2153c-.01-.3924-.096-.7417-.259-1.0479-.157-.3063-.38-.5432-.667-.7106-.287-.1723-.617-.2584-.991-.2584-.392 0-.744.0933-1.055.2799-.306.1866-.548.4474-.725.7824-.172.3349-.258.7082-.258 1.1197v.7967c-.005.4498.081.847.258 1.1915.177.3398.421.603.732.7896.316.1866.675.2799 1.077.2799.292 0 .56-.0502.804-.1507.249-.1053.457-.2465.624-.4235.173-.1819.295-.3924.367-.6317h2.016c-.105.5504-.332 1.0336-.681 1.45-.345.4163-.79.7393-1.335.969-.541.2296-1.149.3445-1.824.3445zm8.779-10.7882h4.177c.737 0 1.383.1484 1.938.4451.56.2966.991.7129 1.292 1.2489.306.5311.46 1.1365.46 1.816s-.154 1.2848-.46 1.8159c-.306.5312-.739.9475-1.299 1.2489-.56.3015-1.208.4522-1.945.4522h-2.835v-1.7154h2.555c.383 0 .713-.0742.99-.2225.283-.1532.498-.3637.646-.6317.149-.2679.225-.5766.23-.9259 0-.3541-.074-.6652-.222-.9331-.149-.2728-.366-.4833-.654-.6316-.282-.1484-.614-.2226-.997-.2226h-1.845v8.8645h-2.031zm12.274 10.7523c-.694 0-1.314-.1747-1.859-.524-.541-.3493-.967-.8374-1.278-1.4642-.311-.6317-.464-1.359-.459-2.1821 0-.823.158-1.548.473-2.1748.316-.6269.747-1.1102 1.292-1.4499.551-.3446 1.175-.5144 1.874-.5096.459 0 .885.0861 1.277.2584.393.1674.718.3995.976.6962.264.2919.436.6101.517.9546l-.351-.0143v-1.7442h1.966v8.0103h-1.945l.007-1.5504.345-.2009c-.115.3541-.311.6747-.589.9618-.277.2871-.612.5144-1.005.6819-.392.1674-.806.2512-1.241.2512zm.43-1.6652c.407 0 .768-.1053 1.084-.3159.316-.2105.562-.5048.739-.8828.178-.378.268-.8135.273-1.3064 0-.4881-.088-.9211-.265-1.2991-.178-.3781-.426-.67-.747-.8757-.316-.2058-.677-.3087-1.084-.3087-.402 0-.753.1053-1.055.3158-.301.2058-.533.4977-.696.8757-.163.3781-.244.8111-.244 1.2992s.081.9212.244 1.2992c.167.3732.402.6675.703.8828.302.2106.651.3159 1.048.3159zm5.743-6.4887h1.88v1.6365l-.273.0359c.086-.3732.24-.6962.46-.969.225-.2775.492-.4881.803-.6316.312-.1484.649-.2225 1.013-.2225.062 0 .122.0047.179.0143.062.0048.12.012.172.0215v1.8375c-.047-.0191-.119-.0335-.215-.043-.096-.0144-.189-.0216-.28-.0216-.364 0-.682.0694-.955.2082-.268.1388-.478.3445-.631.6173-.149.268-.223.5933-.223.9762v4.5506h-1.93zm6.711-1.9524h1.952v9.9627h-1.952zm-1.457 1.9524h4.866v1.6006h-4.866zm7.924 8.0103h-1.96v-8.0103h1.917v1.6437l-.316.1292c.091-.3828.265-.7202.524-1.0121.258-.2966.576-.524.954-.6819.379-.1627.781-.2416 1.206-.2368.565 0 1.06.122 1.486.366.426.2393.754.5862.983 1.0408.235.4546.352.9881.352 1.6006v5.1608h-1.966v-4.7588c0-.3541-.06-.658-.18-.9116-.115-.2584-.285-.4522-.509-.5814-.221-.134-.484-.2009-.79-.2009-.321 0-.61.0789-.869.2368-.253.1532-.457.3733-.61.6604-.148.2823-.222.6053-.222.969zm10.501.1795c-.794 0-1.498-.1723-2.111-.5168-.607-.3446-1.081-.8326-1.421-1.4643-.339-.6316-.509-1.3613-.509-2.1892 0-.7991.172-1.5145.517-2.1461.344-.6364.82-1.1317 1.428-1.4858s1.294-.5312 2.06-.5312c.813 0 1.531.1795 2.153.5384.627.3588 1.103.89 1.429 1.5934.325.6987.452 1.5337.38 2.5051h-7.142v-1.2849l5.649-.0143-.517.2153c-.009-.3924-.095-.7417-.258-1.0479-.158-.3063-.381-.5432-.668-.7106-.287-.1723-.617-.2584-.99-.2584-.393 0-.744.0933-1.055.2799-.306.1866-.548.4474-.725.7824-.173.3349-.259.7082-.259 1.1197v.7967c-.005.4498.082.847.259 1.1915.177.3398.421.603.732.7896.316.1866.675.2799 1.077.2799.291 0 .559-.0502.803-.1507.249-.1053.457-.2465.625-.4235.172-.1819.294-.3924.366-.6317h2.017c-.105.5504-.333 1.0336-.682 1.45-.344.4163-.789.7393-1.335.969-.541.2296-1.149.3445-1.823.3445zm5.29-8.1898h1.88v1.6365l-.272.0359c.086-.3732.239-.6962.459-.969.225-.2775.493-.4881.804-.6316.311-.1484.648-.2225 1.012-.2225.062 0 .122.0047.179.0143.063.0048.12.012.173.0215v1.8375c-.048-.0191-.12-.0335-.216-.043-.095-.0144-.189-.0216-.28-.0216-.363 0-.682.0694-.954.2082-.268.1388-.479.3445-.632.6173-.148.268-.222.5933-.222.9762v4.5506h-1.931z"/></g></svg>

<svg width="186" height="44" viewBox="0 0 186 44" fill="none" xmlns="http://www.w3.org/2000/svg">
<rect width="185.87" height="43.68" rx="5.04" fill="#090A0B"/>
<path fill-rule="evenodd" clip-rule="evenodd" d="M40.3725 13.4395L31.7787 30.2395H23.7067L27.3032 23.2768H27.1418C24.1747 27.1285 19.7477 29.6641 13.44 30.2395V23.3732C13.44 23.3732 17.4752 23.1348 19.8474 20.6408H13.44V13.4396H20.6412V19.3625L20.8029 19.3618L23.7455 13.4396H29.1917V19.3249L29.3534 19.3247L32.4064 13.4395H40.3725Z" fill="white"/>
<path d="M45.4125 16.5798H52.1165V18.3025H47.4438V21.0013H51.8437V22.6809H47.4438V25.4659H52.1667V27.1885H45.4125V16.5798ZM55.6048 27.1885H53.6453V19.1782H55.5618V20.8219L55.246 20.9511C55.3369 20.5683 55.5116 20.2309 55.7699 19.939C56.0284 19.6424 56.3466 19.415 56.7246 19.2571C57.1026 19.0944 57.5045 19.0155 57.9304 19.0203C58.4951 19.0203 58.9905 19.1423 59.4163 19.3863C59.8422 19.6256 60.1698 19.9725 60.3996 20.4271C60.6341 20.8817 60.7513 21.4152 60.7513 22.0277V27.1885H58.7847V22.4297C58.7847 22.0756 58.7248 21.7717 58.6051 21.5181C58.4902 21.2597 58.3203 21.0659 58.0956 20.9367C57.8754 20.8027 57.6122 20.7358 57.3061 20.7358C56.9854 20.7358 56.6958 20.8147 56.4375 20.9726C56.1838 21.1258 55.9805 21.3459 55.8274 21.633C55.679 21.9153 55.6048 22.2383 55.6048 22.602V27.1885ZM63.163 17.2258H65.1153V27.1885H63.163V17.2258ZM61.706 19.1782H66.5725V20.7788H61.706V19.1782ZM71.2452 27.368C70.4508 27.368 69.7475 27.1957 69.1349 26.8512C68.5272 26.5066 68.0534 26.0186 67.7137 25.3869C67.3739 24.7553 67.2042 24.0256 67.2042 23.1977C67.2042 22.3986 67.3764 21.6832 67.7208 21.0516C68.0654 20.4152 68.5415 19.9199 69.1492 19.5658C69.757 19.2117 70.4437 19.0346 71.2093 19.0346C72.0226 19.0346 72.7404 19.2141 73.3627 19.573C73.9895 19.9318 74.4656 20.463 74.7909 21.1664C75.1164 21.8651 75.2432 22.7001 75.1714 23.6715H68.0295V22.3866L73.6785 22.3723L73.1617 22.5876C73.152 22.1952 73.0659 21.8459 72.9032 21.5397C72.7452 21.2334 72.5229 20.9965 72.2356 20.8291C71.9485 20.6568 71.6184 20.5707 71.2452 20.5707C70.8527 20.5707 70.501 20.664 70.19 20.8506C69.8838 21.0372 69.6421 21.298 69.4651 21.633C69.2929 21.9679 69.2068 22.3412 69.2068 22.7527V23.5494C69.2019 23.9992 69.288 24.3964 69.4651 24.7409C69.6421 25.0807 69.8861 25.3439 70.1971 25.5305C70.513 25.7171 70.8718 25.8104 71.2738 25.8104C71.5657 25.8104 71.8336 25.7602 72.0779 25.6597C72.3265 25.5544 72.5348 25.4132 72.7022 25.2362C72.8744 25.0543 72.9966 24.8438 73.0682 24.6045H75.0853C74.9801 25.1549 74.7526 25.6381 74.4034 26.0545C74.0588 26.4708 73.6138 26.7938 73.0682 27.0235C72.5275 27.2531 71.92 27.368 71.2452 27.368ZM76.5351 19.1782H78.4157V20.8147L78.1429 20.8506C78.2292 20.4774 78.3823 20.1544 78.6024 19.8816C78.8273 19.6041 79.0952 19.3935 79.4062 19.25C79.7172 19.1016 80.0547 19.0275 80.4182 19.0275C80.4806 19.0275 80.5402 19.0322 80.5978 19.0418C80.6599 19.0466 80.7173 19.0538 80.77 19.0633V20.9008C80.7221 20.8817 80.6503 20.8673 80.5547 20.8578C80.459 20.8434 80.3657 20.8362 80.2748 20.8362C79.9111 20.8362 79.5929 20.9056 79.3201 21.0444C79.0522 21.1832 78.8415 21.3889 78.6885 21.6617C78.5402 21.9297 78.4659 22.255 78.4659 22.6379V27.1885H76.5351V19.1782ZM85.1699 19.2859C85.5718 19.1184 85.9858 19.0346 86.4116 19.0346C87.1055 19.0346 87.7252 19.2093 88.2708 19.5586C88.8163 19.9031 89.2397 20.3912 89.5413 21.0229C89.8474 21.6497 90.0005 22.3747 90.0005 23.1977C90.0005 24.0256 89.8451 24.7553 89.5341 25.3869C89.2229 26.0138 88.7924 26.4971 88.242 26.8368C87.6966 27.1766 87.0744 27.3441 86.3757 27.3393C85.9404 27.3393 85.524 27.2579 85.1268 27.0952C84.7297 26.9277 84.3923 26.6957 84.1149 26.399C83.8421 26.1023 83.665 25.7697 83.5838 25.4013L83.9282 25.4084V30.239H81.9615V19.1782H83.9067L83.8994 20.9583L83.555 20.9798C83.6554 20.6065 83.8492 20.2716 84.1363 19.9749C84.4282 19.6782 84.7728 19.4485 85.1699 19.2859ZM87.0219 21.0229C86.7155 20.8123 86.3614 20.707 85.9595 20.707C85.5672 20.707 85.213 20.8147 84.8971 21.03C84.5861 21.2406 84.3398 21.5349 84.1579 21.9129C83.9761 22.2909 83.8828 22.7192 83.878 23.1977C83.878 23.6858 83.9664 24.1213 84.1436 24.5041C84.3207 24.8821 84.567 25.174 84.8828 25.3797C85.1987 25.5807 85.5576 25.6812 85.9595 25.6812C86.3663 25.6812 86.7226 25.5783 87.029 25.3726C87.3352 25.1668 87.5698 24.8749 87.7323 24.4969C87.8951 24.1189 87.9766 23.6858 87.9766 23.1977C87.9766 22.7096 87.8928 22.279 87.7252 21.9057C87.5626 21.5277 87.3281 21.2334 87.0219 21.0229ZM91.4218 19.1782H93.3024V20.8147L93.0296 20.8506C93.1157 20.4774 93.2688 20.1544 93.4891 19.8816C93.714 19.6041 93.9819 19.3935 94.2929 19.25C94.6039 19.1016 94.9412 19.0275 95.3049 19.0275C95.3671 19.0275 95.4269 19.0322 95.4843 19.0418C95.5466 19.0466 95.604 19.0538 95.6567 19.0633V20.9008C95.6088 20.8817 95.537 20.8673 95.4412 20.8578C95.3457 20.8434 95.2522 20.8362 95.1613 20.8362C94.7978 20.8362 94.4794 20.9056 94.2068 21.0444C93.9387 21.1832 93.7282 21.3889 93.5752 21.6617C93.4267 21.9297 93.3526 22.255 93.3526 22.6379V27.1885H91.4218V19.1782ZM96.8841 19.1782H98.8436V27.1885H96.8841V19.1782ZM96.8553 16.1133H98.9297V18.1231H96.8553V16.1133ZM104.894 21.554C104.861 21.3482 104.787 21.164 104.672 21.0013C104.557 20.8339 104.404 20.7046 104.212 20.6137C104.026 20.518 103.815 20.4702 103.581 20.4702C103.361 20.475 103.167 20.518 103 20.5994C102.832 20.6759 102.7 20.7836 102.605 20.9224C102.509 21.0611 102.461 21.2119 102.461 21.3746C102.461 21.5947 102.535 21.7741 102.684 21.9129C102.837 22.0469 103.081 22.1498 103.416 22.2216L104.708 22.5086C105.44 22.6666 105.985 22.9369 106.344 23.3197C106.703 23.7026 106.883 24.1954 106.883 24.7984C106.878 25.296 106.742 25.7386 106.474 26.1262C106.21 26.509 105.837 26.8105 105.354 27.0306C104.875 27.2459 104.325 27.3536 103.703 27.3536C103.052 27.3536 102.478 27.2483 101.98 27.0378C101.487 26.8273 101.095 26.5306 100.803 26.1478C100.516 25.7602 100.346 25.3032 100.293 24.7768H102.239C102.296 25.1166 102.454 25.3893 102.712 25.5951C102.971 25.796 103.301 25.8942 103.703 25.8894C103.952 25.8894 104.172 25.8535 104.363 25.7817C104.555 25.7051 104.701 25.6023 104.801 25.4731C104.902 25.3391 104.952 25.1883 104.952 25.0209C104.942 24.8007 104.863 24.6213 104.715 24.4825C104.567 24.3438 104.334 24.2385 104.019 24.1667L102.756 23.8796C101.99 23.7073 101.425 23.4346 101.061 23.0613C100.698 22.6881 100.518 22.1976 100.523 21.5899C100.518 21.097 100.648 20.6544 100.911 20.262C101.174 19.8696 101.54 19.5658 102.009 19.3505C102.483 19.1303 103.023 19.0179 103.631 19.0131C104.244 19.0131 104.779 19.1184 105.239 19.3289C105.698 19.5347 106.062 19.829 106.33 20.2118C106.598 20.5946 106.758 21.042 106.811 21.554H104.894ZM112 27.368C111.206 27.368 110.503 27.1957 109.89 26.8512C109.282 26.5066 108.809 26.0186 108.469 25.3869C108.129 24.7553 107.959 24.0256 107.959 23.1977C107.959 22.3986 108.132 21.6832 108.476 21.0516C108.821 20.4152 109.297 19.9199 109.904 19.5658C110.512 19.2117 111.199 19.0346 111.964 19.0346C112.778 19.0346 113.496 19.2141 114.118 19.573C114.745 19.9318 115.221 20.463 115.546 21.1664C115.871 21.8651 115.998 22.7001 115.926 23.6715H108.785V22.3866L114.434 22.3723L113.917 22.5876C113.907 22.1952 113.821 21.8459 113.658 21.5397C113.501 21.2334 113.278 20.9965 112.991 20.8291C112.704 20.6568 112.374 20.5707 112 20.5707C111.608 20.5707 111.256 20.664 110.945 20.8506C110.639 21.0372 110.397 21.298 110.22 21.633C110.048 21.9679 109.962 22.3412 109.962 22.7527V23.5494C109.957 23.9992 110.043 24.3964 110.22 24.7409C110.397 25.0807 110.641 25.3439 110.952 25.5305C111.268 25.7171 111.627 25.8104 112.029 25.8104C112.321 25.8104 112.589 25.7602 112.833 25.6597C113.082 25.5544 113.29 25.4132 113.457 25.2362C113.63 25.0543 113.752 24.8438 113.824 24.6045H115.84C115.735 25.1549 115.508 25.6381 115.159 26.0545C114.814 26.4708 114.369 26.7938 113.824 27.0235C113.283 27.2531 112.675 27.368 112 27.368ZM120.779 16.5798H124.956C125.693 16.5798 126.339 16.7282 126.894 17.0249C127.454 17.3215 127.885 17.7378 128.186 18.2738C128.492 18.8049 128.646 19.4103 128.646 20.0898C128.646 20.7693 128.492 21.3746 128.186 21.9057C127.88 22.4369 127.447 22.8532 126.887 23.1546C126.327 23.4561 125.679 23.6068 124.942 23.6068H122.107V21.8914H124.662C125.045 21.8914 125.375 21.8172 125.652 21.6689C125.935 21.5157 126.15 21.3052 126.298 21.0372C126.447 20.7693 126.523 20.4606 126.528 20.1113C126.528 19.7572 126.454 19.4461 126.306 19.1782C126.157 18.9054 125.94 18.6949 125.652 18.5466C125.37 18.3982 125.038 18.324 124.655 18.324H122.81V27.1885H120.779V16.5798ZM133.053 27.3321C132.359 27.3321 131.739 27.1574 131.194 26.8081C130.653 26.4588 130.227 25.9707 129.916 25.3439C129.605 24.7122 129.452 23.9849 129.457 23.1618C129.457 22.3388 129.615 21.6138 129.93 20.987C130.246 20.3601 130.677 19.8768 131.222 19.5371C131.773 19.1925 132.397 19.0227 133.096 19.0275C133.555 19.0275 133.981 19.1136 134.373 19.2859C134.766 19.4533 135.091 19.6854 135.349 19.9821C135.613 20.274 135.785 20.5922 135.866 20.9367L135.515 20.9224V19.1782H137.481V27.1885H135.536L135.543 25.6381L135.888 25.4372C135.773 25.7913 135.577 26.1119 135.299 26.399C135.022 26.6861 134.687 26.9134 134.294 27.0809C133.902 27.2483 133.488 27.3321 133.053 27.3321ZM133.483 25.6669C133.89 25.6669 134.251 25.5616 134.567 25.351C134.883 25.1405 135.129 24.8462 135.306 24.4682C135.484 24.0902 135.574 23.6547 135.579 23.1618C135.579 22.6737 135.491 22.2407 135.314 21.8627C135.136 21.4846 134.888 21.1927 134.567 20.987C134.251 20.7812 133.89 20.6783 133.483 20.6783C133.081 20.6783 132.73 20.7836 132.428 20.9941C132.127 21.1999 131.895 21.4918 131.732 21.8698C131.569 22.2479 131.488 22.6809 131.488 23.169C131.488 23.6571 131.569 24.0902 131.732 24.4682C131.899 24.8414 132.134 25.1357 132.435 25.351C132.737 25.5616 133.086 25.6669 133.483 25.6669ZM139.226 19.1782H141.106V20.8147L140.833 20.8506C140.919 20.4774 141.073 20.1544 141.293 19.8816C141.518 19.6041 141.785 19.3935 142.096 19.25C142.408 19.1016 142.745 19.0275 143.109 19.0275C143.171 19.0275 143.231 19.0322 143.288 19.0418C143.35 19.0466 143.408 19.0538 143.46 19.0633V20.9008C143.413 20.8817 143.341 20.8673 143.245 20.8578C143.149 20.8434 143.056 20.8362 142.965 20.8362C142.601 20.8362 142.283 20.9056 142.01 21.0444C141.742 21.1832 141.532 21.3889 141.379 21.6617C141.23 21.9297 141.156 22.255 141.156 22.6379V27.1885H139.226V19.1782ZM145.937 17.2258H147.889V27.1885H145.937V17.2258ZM144.48 19.1782H149.346V20.7788H144.48V19.1782ZM152.404 27.1885H150.444V19.1782H152.361V20.8219L152.045 20.9511C152.136 20.5683 152.31 20.2309 152.569 19.939C152.827 19.6424 153.145 19.415 153.523 19.2571C153.902 19.0944 154.304 19.0155 154.729 19.0203C155.294 19.0203 155.789 19.1423 156.215 19.3863C156.641 19.6256 156.969 19.9725 157.198 20.4271C157.433 20.8817 157.55 21.4152 157.55 22.0277V27.1885H155.584V22.4297C155.584 22.0756 155.524 21.7717 155.404 21.5181C155.289 21.2597 155.119 21.0659 154.895 20.9367C154.674 20.8027 154.411 20.7358 154.105 20.7358C153.784 20.7358 153.495 20.8147 153.236 20.9726C152.983 21.1258 152.779 21.3459 152.626 21.633C152.478 21.9153 152.404 22.2383 152.404 22.602V27.1885ZM162.905 27.368C162.111 27.368 161.407 27.1957 160.794 26.8512C160.187 26.5066 159.713 26.0186 159.373 25.3869C159.034 24.7553 158.864 24.0256 158.864 23.1977C158.864 22.3986 159.036 21.6832 159.381 21.0516C159.725 20.4152 160.201 19.9199 160.809 19.5658C161.417 19.2117 162.103 19.0346 162.869 19.0346C163.682 19.0346 164.4 19.2141 165.022 19.573C165.649 19.9318 166.125 20.463 166.451 21.1664C166.776 21.8651 166.903 22.7001 166.831 23.6715H159.689V22.3866L165.338 22.3723L164.821 22.5876C164.812 22.1952 164.726 21.8459 164.563 21.5397C164.405 21.2334 164.182 20.9965 163.895 20.8291C163.608 20.6568 163.278 20.5707 162.905 20.5707C162.512 20.5707 162.161 20.664 161.85 20.8506C161.544 21.0372 161.302 21.298 161.125 21.633C160.952 21.9679 160.866 22.3412 160.866 22.7527V23.5494C160.861 23.9992 160.948 24.3964 161.125 24.7409C161.302 25.0807 161.546 25.3439 161.857 25.5305C162.173 25.7171 162.532 25.8104 162.934 25.8104C163.225 25.8104 163.493 25.7602 163.737 25.6597C163.986 25.5544 164.194 25.4132 164.362 25.2362C164.534 25.0543 164.656 24.8438 164.728 24.6045H166.745C166.64 25.1549 166.412 25.6381 166.063 26.0545C165.719 26.4708 165.274 26.7938 164.728 27.0235C164.187 27.2531 163.579 27.368 162.905 27.368ZM168.195 19.1782H170.075V20.8147L169.803 20.8506C169.889 20.4774 170.042 20.1544 170.262 19.8816C170.487 19.6041 170.755 19.3935 171.066 19.25C171.377 19.1016 171.714 19.0275 172.078 19.0275C172.14 19.0275 172.2 19.0322 172.257 19.0418C172.32 19.0466 172.377 19.0538 172.43 19.0633V20.9008C172.382 20.8817 172.31 20.8673 172.214 20.8578C172.119 20.8434 172.025 20.8362 171.934 20.8362C171.571 20.8362 171.252 20.9056 170.98 21.0444C170.712 21.1832 170.501 21.3889 170.348 21.6617C170.2 21.9297 170.126 22.255 170.126 22.6379V27.1885H168.195V19.1782Z" fill="white"/>
</svg>
